!!!COM: Palestrina, Giovanni Perluigi da
!!!OPR: Missa Inviolata
!!!OMD: Gloria
!!!OTL: First Section
**kern	**kern	**kern	**kern
*Ibass	*Itenor	*Icalto	*Icant
!Bassus	!Tenor	!Altus	!Cantus
*clefF4	*clefGv2	*clefG2	*clefG2
*k[b-]	*k[b-]	*k[b-]	*k[b-]
*F:ion	*F:ion	*F:ion	*F:ion
*M4/2	*M4/2	*M4/2	*M4/2
=1	=1	=1	=1
0r	1r	1.c	0r
.	[1F	.	.
.	.	2c	.
=2	=2	=2	=2
0r	2F]	1c	0r
.	2F	.	.
.	1F	1d	.
=3	=3	=3	=3
0r	1G	1e	0r
.	1A	2.f	.
.	.	4e	.
=4	=4	=4	=4
0r	1.B-	4d	1.f
.	.	4c	.
.	.	1d	.
.	4A	4c	2f
.	4G	4B-	.
=5	=5	=5	=5
0r	2A	2c	1f
.	1B-	1d	.
.	.	.	1g
.	2c	[2e	.
=6	=6	=6	=6
0r	2.A	4e]	1a
.	.	4c	.
.	.	1f	.
.	8G	.	.
.	8F	.	.
.	1G	.	1b-
.	.	2e	.
=7	=7	=7	=7
2r	1F	1f	1a
1F	.	.	.
.	2r	1c	1g
2E	[2c	.	.
=8	=8	=8	=8
2.F	2c]	0r	1a
.	2A	.	.
4E	.	.	.
2D	2B-	.	1r
2C	[2A	.	.
=9	=9	=9	=9
1BB-	4A]	2r	1r
.	8G	.	.
.	8F	.	.
.	2G	1d	.
1AA	2.A	.	2r
.	.	2c#	[2a
.	4G	.	.
=10	=10	=10	=10
0r	4F	2.d	2a]
.	4E	.	.
.	2D	.	2f
.	.	4c	.
.	2E-	2B-	2g
.	2F	2A	[2f
=11	=11	=11	=11
1r	1C	1G	4f]
.	.	.	8e
.	.	.	8d
.	.	.	2e
2r	2r	1F	1f
2F	2A	.	.
=12	=12	=12	=12
2F	2A	1r	1c
2E	2G	.	.
1F	2.A	2r	2r
.	.	[2f	[2a
.	4B-	.	.
=13	=13	=13	=13
0r	1c	2f]	2a]
.	.	2e	2g
.	1F	2.f	2.a
.	.	4e	4g
=14	=14	=14	=14
0r	1r	2d	2f
.	.	2c	2.g
.	2r	2B	.
.	.	.	4f
.	[2c	2c	2e
=15	=15	=15	=15
1r	2c]	1G	1d
.	2B	.	.
2r	2.c	2.A	1c
[2F	.	.	.
.	4B-	4B-	.
=16	=16	=16	=16
2F]	2A	0c	0r
2E	2G	.	.
2.F	2A	.	.
.	4F	.	.
4E	4G	.	.
=17	=17	=17	=17
2D	4A	1r	2r
.	4B-	.	.
2C	2c	.	1r
1D	2B-	2r	.
.	2A	[2f	[2a
=18	=18	=18	=18
1C	1c	2f]	2a]
.	.	2e	2g
1r	1F	2.f	2.a
.	.	4e	4g
=19	=19	=19	=19
0r	1r	2d	2f
.	.	2c	2.g
.	2r	2B	.
.	.	.	4f
.	[2c	2c	2e
=20	=20	=20	=20
1r	2c]	1G	1d
.	2B-	.	.
2r	2.c	2.A	1c
[2F	.	.	.
.	4B-	4B-	.
=21	=21	=21	=21
2F]	2A	1c	0r
2E	2G	.	.
2.F	2.A	2r	.
.	.	2f	.
4E	4G	.	.
=22	=22	=22	=22
2D	4A	2f	2r
.	4B-	.	.
2C	2c	2e	2cc
1D	1F	1f	2cc
.	.	.	2b
=23	=23	=23	=23
1C	2r	2e	2.cc
.	2c	2c	.
.	.	.	4b-
2F	2c	2.d	2a
2G	2B	.	2g
.	.	4e	.
=24	=24	=24	=24
1.F	2.c	2f	2.a
.	.	4F	.
.	4B-	4G	4g
.	2A	4A	2f
.	.	4F	.
2E	2G	[2c	[2g
=25	=25	=25	=25
1D	2A	4c]	4g]
.	.	4A	4f
.	4G	2B	1f
.	4F	.	.
1C	1G	1c	.
.	.	.	2e
=26	=26	=26	=26
2FF	[0F	1A	0f
2.F	.	.	.
.	.	2r	.
4E	.	.	.
4D	.	[2d	.
4C	.	.	.
=27	=27	=27	=27
1D	1F]	2d]	2r
.	.	2d	1a
2.AA	1r	2c	.
.	.	[2f	2a
4BB-	.	.	.
=28	=28	=28	=28
1C	0r	2f]	2g
.	.	2e	1cc
1r	.	2c	.
.	.	[2d	2b-
=29	=29	=29	=29
0r	1r	4d]	2a
.	.	4c	.
.	.	4B-	1b-
.	.	4A	.
.	[1d	2G	.
.	.	2F	4a
.	.	.	4g
=30	=30	=30	=30
1r	2d]	1B-	2f
.	2d	.	2g
2r	1c	2.A	[1a
[2A	.	.	.
.	.	4B-	.
=31	=31	=31	=31
2A]	2A	1c	1a]
2A	1c	.	.
1G	.	1d	1r
.	2B-	.	.
=32	=32	=32	=32
2E	2G	0c	2r
1F	4A	.	2a
.	4G	.	.
.	4A	.	2a
.	4B-	.	.
2E	[2c	.	2g
=33	=33	=33	=33
2C	4c]	0r	2e
.	4B-	.	.
2.D	4A	.	2.f
.	4G	.	.
.	4F	.	.
4C	4G	.	4e
2AA	[2A	.	2c
=34	=34	=34	=34
1BB-	2A]	1r	1d
.	2G	.	.
2FF	[1A	2r	1c
[2F	.	[2f	.
=35	=35	=35	=35
4F]	1A]	4f]	2r
4F	.	4f	.
2F	.	2f	2.cc
1A	1r	2e	.
.	.	.	4cc
.	.	2c	2cc
=36	=36	=36	=36
1G	0r	2d	2b-
.	.	2e	2g
1F	.	2f	2.a
.	.	4F	.
.	.	4G	4g
=37	=37	=37	=37
0r	0r	4A	2f
.	.	4B-	.
.	.	4c	2e
.	.	4A	.
.	.	1B-	1d
=38	=38	=38	=38
2r	2r	1A	0c
1F	1A	.	.
.	.	2r	.
2F	2A	[2c	.
=39	=39	=39	=39
1F	1A	2c]	0r
.	.	2c	.
2E	2G	1c	.
2C	2E	.	.
=40	=40	=40	=40
2.D	2.F	2B-	0r
.	.	2A	.
4C	4E	.	.
2BB-	2D	2G	.
2AA	2C	[2F	.
=41	=41	=41	=41
2GG	1G	2F]	1b-
2GG	.	2E	.
1FF	2.A	2F	2a
.	.	2f	2a
.	4B-	.	.
=42	=42	=42	=42
2r	1c	2e	1g
2C	.	2e	.
4D	1F	1d	2f
4E	.	.	.
4F	.	.	[2a
4G	.	.	.
=43	=43	=43	=43
2A	0r	2c	2a]
2B-	.	1d	2g
1A	.	.	2f
.	.	2c	2e
=44	=44	=44	=44
1D	1r	2B-	0d
.	.	2A	.
1r	1B-	1G	.
=45	=45	=45	=45
1F	2A	2r	0r
.	2A	1d	.
2E	1G	.	.
2E	.	2c#	.
=46	=46	=46	=46
1D	2F	4d	0r
.	.	4e	.
.	2.A	4f	.
.	.	4d	.
2C#	.	2e	.
.	4G	.	.
[2D	[2F	2A	.
=47	=47	=47	=47
2D]	2F]	1A	1r
2C	2E	.	.
2BB-	2D	[1d	[1f
2BB-	2D	.	.
=48	=48	=48	=48
0AA	1A	1d]	1f]
.	[1A	[1c	1e
=49	=49	=49	=49
0F	1A]	1c]	0a
.	[1c	[1f	.
=50	=50	=50	=50
0C	1c]	2f]	[0g
.	.	4e	.
.	.	4d	.
.	[1c	1e	.
=51	=51	=51	=51
1G	2c]	0d	0g]
.	4B-	.	.
.	4A	.	.
2.G	1B	.	.
4F	.	.	.
=52	=52	=52	=52
2E	2.c	0c	2r
2F	.	.	1f
.	4B-	.	.
1C	2A	.	.
.	2G	.	2e
=53	=53	=53	=53
0r	1A	2r	4c
.	.	.	4d
.	.	1c	4e
.	.	.	4f
.	1G	.	4g
.	.	.	4f
.	.	2B-	4g
.	.	.	4a
=54	=54	=54	=54
0r	2r	4G	1.b-
.	.	4A	.
.	1G	4B-	.
.	.	4c	.
.	.	4d	.
.	.	4c	.
.	2F	4d	4a
.	.	4e	4g
=55	=55	=55	=55
0r	4D	1.f	1.a
.	4E	.	.
.	4F	.	.
.	4G	.	.
.	4A	.	.
.	4B	.	.
.	2c	2e	2g
=56	=56	=56	=56
0r	2F	2d	4f
.	.	.	4e
.	2A	1c	4d
.	.	.	4c
.	1G	.	2.d
.	.	2B	.
.	.	.	4e
=57	=57	=57	=57
2r	1F	1c	4f
.	.	.	4g
1F	.	.	1a
.	1C	1r	.
2E	.	.	4g
.	.	.	4f
=58	=58	=58	=58
4C	0r	1c	1e
4D	.	.	.
4E	.	.	.
4F	.	.	.
2.G	.	2B-	2d
.	.	4G	[2g
4F	.	4A	.
=59	=59	=59	=59
4G	0r	4B-	2g]
4A	.	4c	.
1B-	.	4d	2f
.	.	4e	.
.	.	2.f	4d
.	.	.	4e
4A	.	.	4f
4G	.	4e	4g
=60	=60	=60	=60
2F	0r	2d	4a
.	.	.	4b
2A	.	2c	1cc
1G	.	2.d	.
.	.	.	2b-
.	.	4e	.
=61	=61	=61	=61
1F	2r	1f	1a
.	1c	.	.
1G	.	[1d	[1g
.	2B-	.	.
=62	=62	=62	=62
2r	4G	1d]	1g]
.	4A	.	.
1G	4B-	.	.
.	4c	.	.
.	4d	2r	1r
.	4c	.	.
2F	4d	[2d	.
.	4e	.	.
=63	=63	=63	=63
2D	2.f	2d]	0r
1F	.	4c	.
.	4e	4B-	.
.	2d	2A	.
2E	[2c	2G	.
=64	=64	=64	=64
1D	2c]	2A	2r
.	2B	2F	1f
1C	[1c	1G	.
.	.	.	2e
=65	=65	=65	=65
2r	1c]	1A	4c
.	.	.	4d
1C	.	.	4e
.	.	.	4f
.	1r	[1G	4g
.	.	.	4f
2BB-	.	.	4g
.	.	.	4a
=66	=66	=66	=66
4GG	2r	1G]	2.b-
4AA	.	.	.
4BB-	1B-	.	.
4C	.	.	4a
4D	.	2r	4f
4E	.	.	4g
[2F	2A	[2c	[2a
=67	=67	=67	=67
4F]	4F	2c]	4a]
4E	4G	.	4g
2D	4A	2d	2f
.	4B-	.	.
2C	2c	2G	2e
2GG	[2B-	[2d	[2g
=68	=68	=68	=68
1D	4B-]	4d]	4g]
.	4A	4c	4f
.	2F	4A	1f
.	.	4B	.
1C	1G	1c	.
.	.	.	2e
=69	=69	=69	=69
0FF	0F	0A	0f
=70	=70	=70	=70
0r	0r	0d	1r
.	.	.	[1a
=71	=71	=71	=71
0r	0r	1c	1a]
.	.	2.B-	1g
.	.	4c	.
=72	=72	=72	=72
0r	0r	4d	2.f
.	.	4e	.
.	.	1f	.
.	.	.	4g
.	.	.	4a
.	.	.	4b-
.	.	2e	[2cc
=73	=73	=73	=73
0r	1r	2f	2cc]
.	.	2d	2b
.	[1A	1e	1cc
=74	=74	=74	=74
0r	1A]	2c	1a
.	.	1f	.
.	1G	.	1b-
.	.	2e	.
=75	=75	=75	=75
0r	2.F	1.f	2a
.	.	.	1a
.	4G	.	.
.	4A	.	.
.	4B-	.	.
.	[2c	4e	2g
.	.	4d	.
=76	=76	=76	=76
0r	2c]	2e	1.g
.	2B	2d	.
.	2c	2e	.
.	2A	[2f	2a
=77	=77	=77	=77
0r	1B-	4f]	1d
.	.	4e	.
.	.	1d	.
.	1A	.	1e
.	.	2c#	.
=78	=78	=78	=78
0D	1r	0d	2d
.	.	.	1f
.	[1A	.	.
.	.	.	4e
.	.	.	4d
=79	=79	=79	=79
1C	1A]	0r	2e
.	.	.	2c
2.BB-	1G	.	2.d
4C	.	.	4e
=80	=80	=80	=80
4D	2.F	0r	1f
4E	.	.	.
1F	.	.	.
.	4G	.	.
.	4A	.	1c
.	4B-	.	.
2E	[2c	.	.
=81	=81	=81	=81
2F	2c]	0r	0r
2G	2B	.	.
4F	2c	.	.
4E	.	.	.
[2A	2A	.	.
=82	=82	=82	=82
2A]	1B-	2r	0r
2G	.	1d	.
1A	[1A	.	.
.	.	2c	.
=83	=83	=83	=83
2r	1A]	2c	1.a
1F	.	1f	.
.	2r	.	.
2C	[2c	2e	2g
=84	=84	=84	=84
1C	2c]	4e	1g
.	.	4d	.
.	2c	4c	.
.	.	4B-	.
[1F	1c	1A	[1a
=85	=85	=85	=85
2F]	2r	2r	2a]
2D	1d	1f	2a
2D	.	.	2a
2D	2d	2f	2a
=86	=86	=86	=86
1G	2B-	2d	1b-
.	2B-	2d	.
1C	1c	1e	2g
.	.	.	[2cc
=87	=87	=87	=87
1F	2A	2c	4cc]
.	.	.	4b-
.	2.d	2.f	4a
.	.	.	4g
1D	.	.	2a
.	4c	4e	.
.	4B-	4d	[2b-
.	4A	4c	.
=88	=88	=88	=88
1E-	2G	2B-	4b-]
.	.	.	4a
.	2.c	2.e-	4g
.	.	.	4f
1C	.	.	2g
.	4B-	4d	.
.	4A	[2c	[2a
.	4G	.	.
=89	=89	=89	=89
1D	1F	4c]	4a]
.	.	4A	4g
.	.	2B	1f
1C	1G	1c	.
.	.	.	2e
=90	=90	=90	=90
2.F	0F	2r	1f
.	.	2c	.
4E	.	.	.
1D	.	1d	2r
.	.	.	2f
=91	=91	=91	=91
1C	0r	2e	1g
.	.	2e	.
1FF	.	2.f	2a
.	.	.	2a
.	.	4f	.
=92	=92	=92	=92
0r	0r	2e	2.cc
.	.	2.f	.
.	.	.	4b-
.	.	.	2a
.	.	4e	.
.	.	4d	[2b-
.	.	4c	.
=93	=93	=93	=93
0r	0r	2B-	4b-]
.	.	.	4a
.	.	2.c	4g
.	.	.	4f
.	.	.	4e
.	.	4B-	4d
.	.	4A	2e
.	.	4G	.
=94	=94	=94	=94
0r	1F	4A	2.f
.	.	4B-	.
.	.	1c	.
.	.	.	4e
.	1G	.	1d
.	.	2B	.
=95	=95	=95	=95
2r	2.A	2.c	1c
1F	.	.	.
.	4B-	4B-	.
.	1c	2A	1r
2E	.	2G	.
=96	=96	=96	=96
2.D	2B-	0F	1r
.	2.A	.	.
8C	.	.	.
8BB-	.	.	.
2AA	.	.	1f
.	4G	.	.
2BB-	[2F	.	.
=97	=97	=97	=97
1GG	2F]	1r	1g
.	2E	.	.
1FF	2.F	2r	2.a
.	.	[2f	.
.	4G	.	4b-
=98	=98	=98	=98
0r	1A	2f]	1cc
.	.	2e	.
.	1D	2.d	2b-
.	.	.	[2a
.	.	8c	.
.	.	8B-	.
=99	=99	=99	=99
1.D	1r	2A	4a]
.	.	.	4g
.	.	2B-	4f
.	.	.	4e
.	2r	2A	1f
2D	[2A	2F	.
=100	=100	=100	=100
2C	2A]	1c	1e
2AA	2A	.	.
2BB-	2G	1r	1r
2C	2E	.	.
=101	=101	=101	=101
2.D	2F	1r	0r
.	2F	.	.
4C	.	.	.
1BB-	1G	1d	.
=102	=102	=102	=102
1AA	1A	2c	1a
.	.	2A	.
1r	1r	[1B-	2g
.	.	.	2f
=103	=103	=103	=103
1G	1r	2B-]	2g
.	.	2B-	2g
2F	1d	1A	1a
2D	.	.	.
=104	=104	=104	=104
1.E-	2c	1.G	0r
.	2B-	.	.
.	2c	.	.
2E-	2c	2G	.
=105	=105	=105	=105
0D	2d	2A	1r
.	2d	2f	.
.	1d	1f	2r
.	.	.	2a
=106	=106	=106	=106
0r	2c	2e	1a
.	2A	2c	.
.	[1B-	[1d	2g
.	.	.	2f
=107	=107	=107	=107
0r	2B-]	2d]	2g
.	2B-	2d	2g
.	1A	1e	1a
=108	=108	=108	=108
0F	0c	0f	0a
=109	=109	=109	=109
1G	1B-	1d	1g
1E-	1B-	1e-	1g
=110	=110	=110	=110
0F	2A	1c	0f
.	2F	.	.
.	2A	2r	.
.	2A	2c	.
=111	=111	=111	=111
0r	2B-	2d	2r
.	2B-	2d	2f
.	2A	2.f	2a
.	2D	.	2a
.	.	4e	.
=112	=112	=112	=112
1r	2G	2d	2b-
.	2G	4c	2b-
.	.	4B-	.
2r	4F	2c	2a
.	4G	.	.
2F	4A	2c	[2cc
.	4B-	.	.
=113	=113	=113	=113
2A	1c	1F	4cc]
.	.	.	4b-
2A	.	.	1a
2B-	1d	1r	.
2B-	.	.	2g
=114	=114	=114	=114
2.A	2.c	1r	1a
4G	4B-	.	.
2F	2A	1c	1r
4E	4G	.	.
4D	4F	.	.
=115	=115	=115	=115
1C	2G	2e	0r
.	1c	2e	.
1D	.	2f	.
.	2B	2f	.
*-	*-	*-	*-
!!!CDT: 1525/^1526/-1594/2/2
!!!OCY: Italia
!!!AGN: Mass (Parody)
!!!AST: renaissance, vocal
!!!ASW: Motet 1532 (Courtois)
!!!PWK: Masses, Book 2
!!!RNB: Cadence finals: C
!!!YOR: Le Opere Complete, v. 4, p. 26
!!!YOO: Rome, Italy: Fratelli Scalera
!!!END: 1992//
!!!EED: John Miller
!!!YEC: Copyright 2000, John Miller
!!!YEN: United States of America
!!!YEM: Rights to all derivative electronic formats reserved.
!!!YEM: Refer to licensing agreement for further details.
!!!YEM: This file must be accompanied by the licensing agreement.
!!!YEM: A copy of the licensing agreement may be found at http://www.music-cog.ohio-state.edu/HumdrumDatabases/Palestrina/license.txt
!!!EMD: converted to Humdrum by Bret Aarden
